X:1
T:Title
%%score { 1 | ( 2 3 ) }
L:1/8
M:2/4
K:G
V:1 treble nm="Grand Piano"
V:2 bass 
V:3 bass 
V:1
 z4 | z2 z[Q:1/4=82] D | GG GG | B>A GG | AA BB | A3 D | GG GG | B>A GG | Ac/A/ GF |[M:3/8] G3 | %10
[M:1/8] D |[M:2/4] BB B/A/G/A/ | B>A GD | [Ac][Ac] [Ac]/[GB]/[FA]/[GB]/ | [Ac]>[GB] [FA]D | %15
 [DGB][DGB]/[DGB]/ [DBd][DGB]/[DGB]/ | [EGc][EGc] [CE][CEG] | [A,DF][FA] [Ac]F | G4 | B2 B2 | %20
 [FA]4 | [Fc]2 [Fd]2 | B3 D | BB/B/ [DBd][DGB]/[DGB]/ | [EGc][EGc] [CE][CEG] | %25
 [A,DF][DFA] [DAc][CDF] |[M:6/4] .[B,DG]6 z6 |] %27
V:2
 z4 | z4 | B,B, B,B, | D>[K:treble]C .B,2 | FF GG | F4 | B,B, B,B, | D>C B,B, | .C>C B,A, | %9
[M:3/8] B,3 |[M:1/8] [G,B,] |[M:2/4][K:treble] [G,DG][G,DG] D/C/[G,D]/-[G,CD]/ | %12
 [G,D]>[G,CD] [G,B,D][G,B,] | [D,D][D,D] [D,D][D,D] | [D,D]>[D,D] [D,D]D, | G,G,/G,/ G,G,/G,/ | %16
 C,C, C,C, | D,[D,D] [D,D][D,CD] | [G,B,D]4 | [G,DG]2 [G,DG]2 | [D,D]4 | [D,D]2 [D,D]2 | %22
 [G,DG]3 [G,B,] | [G,DG][G,DG]/[G,DG]/[K:bass] G,G,/G,/ | C,C, C,C, | D,D, D,D, |[M:6/4] .G,6 z6 |] %27
V:3
 x4 | x4 | x4 | x3/2[K:treble] x5/2 | x4 | x4 | x4 | x4 | x4 |[M:3/8] x3 |[M:1/8] x | %11
[M:2/4][K:treble] z2 G,.B, | x4 | x4 | x4 | x4 | x4 | x4 | x4 | x4 | x4 | x4 | x4 | x2[K:bass] x2 | %24
 x4 | x4 |[M:6/4] x12 |] %27

